logo/banner.svg

<svg xmlns="http://www.w3.org/2000/svg" width="559.748" height="212.825" viewBox="3971 6608 14810 5631" preserveAspectRatio="xMidYMid" fill-rule="evenodd" stroke-width="28.222" stroke-linejoin="round" xmlns:v="https://vecta.io/nano"><style><![CDATA[.B{font-family:Lobster Two}.C{font-size:3104px}.D{font-family:Noto Mono, monospace}.E{font-size:1270px}.F{font-style:normal}]]></style><defs><font horiz-adv-x="2048"><font-face font-family="Lobster Two embedded" units-per-em="2048" ascent="2037" descent="503" class="F"/><missing-glyph horiz-adv-x="2048" d="M0 0h2047v2047H0V0z"/><glyph unicode="\u0054" horiz-adv-x="1377" d="M1192 1290c145 0 217 53 217 170 0 21-2 45-6 70-51-23-129-43-242-43-170 0-291 47-510 47-446 0-610-211-610-434 0-221 106-297 242-297-39 45-84 121-84 284 0 220 125 289 354 289 27 0 53 0 82-4V0h221v1339c121-26 238-49 336-49z"/><glyph unicode="\u0050" horiz-adv-x="1219" d="M475 1313V0h221v584h45c324 0 488 282 488 512 0 245-205 440-567 440-332 0-625-223-625-483 0-176 94-248 246-248-21 18-86 76-86 244 0 266 192 413 434 413 354 0 405-223 405-397 0-199-98-416-340-418v696l-221-30z"/></font><font horiz-adv-x="2048"><font-face font-family="Noto Mono embedded" units-per-em="2048" ascent="1879" descent="503" class="F"/><missing-glyph horiz-adv-x="2048" d="M0 0h2047v2047H0V0z"/><glyph unicode="\u0079" horiz-adv-x="1086" d="M82 1098h188l262-654c55-137 84-233 89-290h6c15 75 45 172 90 292l239 652h189L670-143c-45-116-97-203-156-262-59-58-141-87-246-87-57 0-113 6-168 17v145c41-8 87-12 136-12 64 0 114 14 150 41 35 27 67 74 95 141l58 150L82 1098z"/><glyph unicode="\u0074" horiz-adv-x="901" d="M1020 150V12C933-9 849-20 768-20 527-20 406 95 406 324v637H139v94l267 49 77 287h105v-293h438V961H588V324c0-130 64-195 192-195 62 0 142 7 240 21z"/><glyph unicode="\u0073" horiz-adv-x="848" d="M203 49v166c129-57 252-86 370-86 183 0 275 54 275 162 0 38-16 71-49 99s-108 63-226 106c-155 58-253 111-293 160-41 48-61 105-61 171 0 91 37 162 112 214 74 51 177 77 308 77 132 0 255-25 369-74l-60-149c-121 48-228 72-319 72-157 0-236-44-236-133 0-41 17-73 51-97 33-25 111-59 232-102 141-51 234-102 281-151 46-50 69-111 69-183 0-100-39-178-117-235S721-20 578-20C413-20 288 3 203 49z"/><glyph unicode="\u0072" horiz-adv-x="821" d="M1059 1073l-49-166c-82 30-157 45-224 45-109 0-192-31-251-92-59-62-89-151-89-268V0H264v1098h148l22-201h8c51 79 105 136 163 170s129 51 214 51c79 0 159-15 240-45z"/><glyph unicode="\u0070" horiz-adv-x="980" d="M340 139h-12c8-86 12-140 12-162v-469H158v1590h147l27-148h8c73 112 181 168 322 168 134 0 239-50 316-149 76-100 114-239 114-418 0-180-38-320-115-420C900 30 795-20 662-20c-138 0-245 53-322 159zm0 453v-41c0-151 23-259 70-323 46-65 120-97 221-97 181 0 272 141 272 422 0 276-91 414-274 414-101 0-174-29-218-88-45-59-68-154-71-287z"/><glyph unicode="\u006F" horiz-adv-x="1006" d="M610-20c-144 0-262 52-355 156-93 103-140 242-140 415 0 175 45 314 136 415 90 101 212 152 365 152 145 0 264-52 357-155s139-241 139-412c0-177-46-316-137-418S762-20 610-20zm4 151c207 0 310 140 310 420 0 277-104 416-312 416-206 0-309-139-309-416 0-280 104-420 311-420z"/><glyph unicode="\u006E" horiz-adv-x="927" d="M887 0v707c0 173-79 260-238 260-205 0-307-133-307-398V0H160v1098h147l27-148h10c69 112 181 168 336 168 259 0 389-134 389-401V0H887z"/><glyph unicode="\u006C" horiz-adv-x="901" d="M532 1413l-268 21v122h451V143l352-20V0H188v123l344 20v1270z"/><glyph unicode="\u0069" horiz-adv-x="901" d="M633 1550c71 0 106-38 106-114 0-39-10-67-31-86s-46-29-75-29c-71 0-107 38-107 115 0 76 36 114 107 114zm-92-596l-269 21v123h451V143l352-20V0H197v123l344 20v811z"/><glyph unicode="\u0068" horiz-adv-x="927" d="M887 0v707c0 173-79 260-238 260-205 0-307-133-307-398V0H160v1556h182v-462l-8-144h10c69 112 181 168 336 168 259 0 389-134 389-401V0H887z"/><glyph unicode="\u0065" horiz-adv-x="980" d="M1096 514H322c5-250 120-375 344-375 130 0 253 25 370 76V55C925 5 804-20 672-20c-163 0-294 50-392 150-98 99-147 236-147 411 0 177 45 318 136 422 90 103 211 155 362 155 141 0 254-45 339-134 84-89 126-208 126-357V514zM326 662h573c0 203-91 305-272 305-183 0-284-102-301-305z"/><glyph unicode="\u0063" horiz-adv-x="900" d="M1061 1059l-62-158c-100 38-189 57-268 57-247 0-371-138-371-413 0-271 120-406 361-406 105 0 212 21 321 62V41C953 0 843-20 713-20c-171 0-304 49-399 146S172 362 172 543c0 187 48 330 145 428s233 147 408 147c119 0 231-20 336-59z"/><glyph unicode="\u0061" horiz-adv-x="901" d="M895 0l-37 152h-8C799 87 746 43 692 18S568-20 483-20C374-20 289 9 228 66c-62 57-93 138-93 241 0 221 170 337 510 348l203 7v69c0 157-81 236-244 236-98 0-207-27-328-82l-63 137c131 64 258 96 383 96 151 0 261-29 329-87 67-58 101-151 101-279V0H895zm-49 537l-162-7c-131-5-223-26-278-61-55-36-82-91-82-164 0-119 67-178 200-178 98 0 176 27 235 82 58 54 87 130 87 229v99z"/><glyph unicode="\u0054" horiz-adv-x="1060" d="M707 0H520v1298H102v164h1022v-164H707V0z"/><glyph unicode="\u0050" horiz-adv-x="953" d="M362 569V0H176v1462h404c343 0 514-143 514-428 0-146-46-260-138-342-93-82-227-123-403-123H362zm0 158h170c132 0 227 24 284 72s85 123 85 225c0 186-113 279-338 279H362V727z"/><glyph unicode="\u0020" horiz-adv-x="1217"/></font></defs><g opacity=".89"><defs><linearGradient id="A" x1="5084" y1="6389" x2="8576" y2="12437" gradientUnits="userSpaceOnUse"><stop offset="0" stop-color="red"/><stop offset="1" stop-color="#2a6099"/></linearGradient></defs><path d="M4765 7031h1l-52 2-52 5-51 8-51 12-49 15-49 18-47 22-46 24-44 28-43 30-40 33-37 36-36 37-33 40-30 43-28 44-24 46-22 47-18 49-15 49-12 51-8 51-5 52-2 52v3176h0l2 52 5 52 8 51 12 51 15 49 18 49 22 47 24 46 28 44 30 43 33 40 36 37 37 36 40 33 43 30 44 28 46 24 47 22 49 18 49 15 51 12 51 8 52 5 52 2h4127 1l52-2 52-5 51-8 51-12 49-15 49-18 47-22 46-24 44-28 43-30 40-33 37-36 36-37 33-40 30-43 28-44 24-46 22-47 18-49 15-49 12-51 8-51 5-52 2-52-1-3176h1 0l-2-52-5-52-8-51-12-51-15-49-18-49-22-47-24-46-28-44-30-43-33-40-36-37-37-36-40-33-43-30-44-28-46-24-47-22-49-18-49-15-51-12-51-8-52-5-52-2H4765z" fill="url(#A)"/></g><text><tspan class="B C"><tspan x="4411" y="11335"><tspan style="white-space:pre">T</tspan></tspan></tspan></text><text><tspan class="B C"><tspan x="6078" y="9836"><tspan style="white-space:pre">2</tspan></tspan></tspan></text><text><tspan class="B C"><tspan x="7279" y="11337"><tspan style="white-space:pre">P</tspan></tspan></tspan></text><text><tspan class="D E"><tspan x="9840" y="8352"><tspan style="white-space:pre">Theoretical </tspan></tspan></tspan><tspan class="D E"><tspan x="9840" y="9838"><tspan style="white-space:pre">Transport </tspan></tspan></tspan><tspan class="D E"><tspan x="9840" y="11324"><tspan style="white-space:pre">Physics</tspan></tspan></tspan></text></svg>

<?xml version="1.0" encoding="UTF-8"?>
<!DOCTYPE svg PUBLIC "-//W3C//DTD SVG 1.1//EN" "http://www.w3.org/Graphics/SVG/1.1/DTD/svg11.dtd">
<svg version="1.2" width="148.1mm" height="56.31mm" viewBox="3971 6608 14810 5631" preserveAspectRatio="xMidYMid" fill-rule="evenodd" stroke-width="28.222" stroke-linejoin="round" xmlns="http://www.w3.org/2000/svg" xmlns:ooo="http://xml.openoffice.org/svg/export" xmlns:xlink="http://www.w3.org/1999/xlink" xmlns:presentation="http://sun.com/xmlns/staroffice/presentation" xmlns:smil="http://www.w3.org/2001/SMIL20/" xmlns:anim="urn:oasis:names:tc:opendocument:xmlns:animation:1.0" xmlns:svg="urn:oasis:names:tc:opendocument:xmlns:svg-compatible:1.0" xml:space="preserve">
 <defs>
  <font id="EmbeddedFont_1" horiz-adv-x="2048">
   <font-face font-family="Lobster Two embedded" units-per-em="2048" font-weight="normal" font-style="normal" ascent="2037" descent="503"/>
   <missing-glyph horiz-adv-x="2048" d="M 0,0 L 2047,0 2047,2047 0,2047 0,0 Z"/>
   <glyph unicode="T" horiz-adv-x="1377" d="M 1192,1290 C 1337,1290 1409,1343 1409,1460 1409,1481 1407,1505 1403,1530 1352,1507 1274,1487 1161,1487 991,1487 870,1534 651,1534 205,1534 41,1323 41,1100 41,879 147,803 283,803 244,848 199,924 199,1087 199,1307 324,1376 553,1376 580,1376 606,1376 635,1372 L 635,0 856,0 856,1339 C 977,1313 1094,1290 1192,1290 Z"/>
   <glyph unicode="P" horiz-adv-x="1219" d="M 475,1313 L 475,0 696,0 696,584 741,584 C 1065,584 1229,866 1229,1096 1229,1341 1024,1536 662,1536 330,1536 37,1313 37,1053 37,877 131,805 283,805 262,823 197,881 197,1049 197,1315 389,1462 631,1462 985,1462 1036,1239 1036,1065 1036,866 938,649 696,647 L 696,1343 475,1313 Z"/>
   <glyph unicode="2" horiz-adv-x="927" d="M 301,197 C 274,197 250,195 227,188 262,494 903,649 903,1149 903,1327 821,1534 483,1534 240,1534 92,1427 92,1251 92,1151 139,1047 236,1047 268,1047 307,1059 340,1098 285,1135 270,1208 270,1251 270,1348 338,1434 465,1434 604,1434 664,1329 664,1180 664,707 74,518 74,119 74,43 92,8 100,-4 168,33 236,47 303,47 399,47 602,-18 760,-18 881,-18 977,20 977,158 977,205 965,254 946,301 889,205 844,160 694,160 559,160 418,197 301,197 Z"/>
  </font>
 </defs>
 <defs>
  <font id="EmbeddedFont_2" horiz-adv-x="2048">
   <font-face font-family="Noto Mono embedded" units-per-em="2048" font-weight="normal" font-style="normal" ascent="1879" descent="503"/>
   <missing-glyph horiz-adv-x="2048" d="M 0,0 L 2047,0 2047,2047 0,2047 0,0 Z"/>
   <glyph unicode="y" horiz-adv-x="1086" d="M 82,1098 L 270,1098 532,444 C 587,307 616,211 621,154 L 627,154 C 642,229 672,326 717,446 L 956,1098 1145,1098 670,-143 C 625,-259 573,-346 514,-405 455,-463 373,-492 268,-492 211,-492 155,-486 100,-475 L 100,-330 C 141,-338 187,-342 236,-342 300,-342 350,-328 386,-301 421,-274 453,-227 481,-160 L 539,-10 82,1098 Z"/>
   <glyph unicode="t" horiz-adv-x="901" d="M 1020,150 L 1020,12 C 933,-9 849,-20 768,-20 527,-20 406,95 406,324 L 406,961 139,961 139,1055 406,1104 483,1391 588,1391 588,1098 1026,1098 1026,961 588,961 588,324 C 588,194 652,129 780,129 842,129 922,136 1020,150 Z"/>
   <glyph unicode="s" horiz-adv-x="848" d="M 203,49 L 203,215 C 332,158 455,129 573,129 756,129 848,183 848,291 848,329 832,362 799,390 766,418 691,453 573,496 418,554 320,607 280,656 239,704 219,761 219,827 219,918 256,989 331,1041 405,1092 508,1118 639,1118 771,1118 894,1093 1008,1044 L 948,895 C 827,943 720,967 629,967 472,967 393,923 393,834 393,793 410,761 444,737 477,712 555,678 676,635 817,584 910,533 957,484 1003,434 1026,373 1026,301 1026,201 987,123 909,66 831,9 721,-20 578,-20 413,-20 288,3 203,49 Z"/>
   <glyph unicode="r" horiz-adv-x="821" d="M 1059,1073 L 1010,907 C 928,937 853,952 786,952 677,952 594,921 535,860 476,798 446,709 446,592 L 446,0 264,0 264,1098 412,1098 434,897 442,897 C 493,976 547,1033 605,1067 663,1101 734,1118 819,1118 898,1118 978,1103 1059,1073 Z"/>
   <glyph unicode="p" horiz-adv-x="980" d="M 340,139 L 328,139 C 336,53 340,-1 340,-23 L 340,-492 158,-492 158,1098 305,1098 332,950 340,950 C 413,1062 521,1118 662,1118 796,1118 901,1068 978,969 1054,869 1092,730 1092,551 1092,371 1054,231 977,131 900,30 795,-20 662,-20 524,-20 417,33 340,139 Z M 340,592 L 340,551 C 340,400 363,292 410,228 456,163 530,131 631,131 812,131 903,272 903,553 903,829 812,967 629,967 528,967 455,938 411,879 366,820 343,725 340,592 Z"/>
   <glyph unicode="o" horiz-adv-x="1006" d="M 610,-20 C 466,-20 348,32 255,136 162,239 115,378 115,551 115,726 160,865 251,966 341,1067 463,1118 616,1118 761,1118 880,1066 973,963 1066,860 1112,722 1112,551 1112,374 1066,235 975,133 884,31 762,-20 610,-20 Z M 614,131 C 821,131 924,271 924,551 924,828 820,967 612,967 406,967 303,828 303,551 303,271 407,131 614,131 Z"/>
   <glyph unicode="n" horiz-adv-x="927" d="M 887,0 L 887,707 C 887,880 808,967 649,967 444,967 342,834 342,569 L 342,0 160,0 160,1098 307,1098 334,950 344,950 C 413,1062 525,1118 680,1118 939,1118 1069,984 1069,717 L 1069,0 887,0 Z"/>
   <glyph unicode="l" horiz-adv-x="901" d="M 532,1413 L 264,1434 264,1556 715,1556 715,143 1067,123 1067,0 188,0 188,123 532,143 532,1413 Z"/>
   <glyph unicode="i" horiz-adv-x="901" d="M 633,1550 C 704,1550 739,1512 739,1436 739,1397 729,1369 708,1350 687,1331 662,1321 633,1321 562,1321 526,1359 526,1436 526,1512 562,1550 633,1550 Z M 541,954 L 272,975 272,1098 723,1098 723,143 1075,123 1075,0 197,0 197,123 541,143 541,954 Z"/>
   <glyph unicode="h" horiz-adv-x="927" d="M 887,0 L 887,707 C 887,880 808,967 649,967 444,967 342,834 342,569 L 342,0 160,0 160,1556 342,1556 342,1094 334,950 344,950 C 413,1062 525,1118 680,1118 939,1118 1069,984 1069,717 L 1069,0 887,0 Z"/>
   <glyph unicode="e" horiz-adv-x="980" d="M 1096,514 L 322,514 C 327,264 442,139 666,139 796,139 919,164 1036,215 L 1036,55 C 925,5 804,-20 672,-20 509,-20 378,30 280,130 182,229 133,366 133,541 133,718 178,859 269,963 359,1066 480,1118 631,1118 772,1118 885,1073 970,984 1054,895 1096,776 1096,627 L 1096,514 Z M 326,662 L 899,662 C 899,865 808,967 627,967 444,967 343,865 326,662 Z"/>
   <glyph unicode="c" horiz-adv-x="900" d="M 1061,1059 L 999,901 C 899,939 810,958 731,958 484,958 360,820 360,545 360,274 480,139 721,139 826,139 933,160 1042,201 L 1042,41 C 953,0 843,-20 713,-20 542,-20 409,29 314,126 219,223 172,362 172,543 172,730 220,873 317,971 414,1069 550,1118 725,1118 844,1118 956,1098 1061,1059 Z"/>
   <glyph unicode="a" horiz-adv-x="901" d="M 895,0 L 858,152 850,152 C 799,87 746,43 692,18 638,-7 568,-20 483,-20 374,-20 289,9 228,66 166,123 135,204 135,307 135,528 305,644 645,655 L 848,662 848,731 C 848,888 767,967 604,967 506,967 397,940 276,885 L 213,1022 C 344,1086 471,1118 596,1118 747,1118 857,1089 925,1031 992,973 1026,880 1026,752 L 1026,0 895,0 Z M 846,537 L 684,530 C 553,525 461,504 406,469 351,433 324,378 324,305 324,186 391,127 524,127 622,127 700,154 759,209 817,263 846,339 846,438 L 846,537 Z"/>
   <glyph unicode="T" horiz-adv-x="1060" d="M 707,0 L 520,0 520,1298 102,1298 102,1462 1124,1462 1124,1298 707,1298 707,0 Z"/>
   <glyph unicode="P" horiz-adv-x="953" d="M 362,569 L 362,0 176,0 176,1462 580,1462 C 923,1462 1094,1319 1094,1034 1094,888 1048,774 956,692 863,610 729,569 553,569 L 362,569 Z M 362,727 L 532,727 C 664,727 759,751 816,799 873,847 901,922 901,1024 901,1210 788,1303 563,1303 L 362,1303 362,727 Z"/>
   <glyph unicode=" " horiz-adv-x="1217"/>
  </font>
 </defs>
 <defs class="EmbeddedBulletChars">
  <g id="bullet-char-template-57356" transform="scale(0.00048828125,-0.00048828125)">
   <path d="M 580,1141 L 1163,571 580,0 -4,571 580,1141 Z"/>
  </g>
  <g id="bullet-char-template-57354" transform="scale(0.00048828125,-0.00048828125)">
   <path d="M 8,1128 L 1137,1128 1137,0 8,0 8,1128 Z"/>
  </g>
  <g id="bullet-char-template-10146" transform="scale(0.00048828125,-0.00048828125)">
   <path d="M 174,0 L 602,739 174,1481 1456,739 174,0 Z M 1358,739 L 309,1346 659,739 1358,739 Z"/>
  </g>
  <g id="bullet-char-template-10132" transform="scale(0.00048828125,-0.00048828125)">
   <path d="M 2015,739 L 1276,0 717,0 1260,543 174,543 174,936 1260,936 717,1481 1274,1481 2015,739 Z"/>
  </g>
  <g id="bullet-char-template-10007" transform="scale(0.00048828125,-0.00048828125)">
   <path d="M 0,-2 C -7,14 -16,27 -25,37 L 356,567 C 262,823 215,952 215,954 215,979 228,992 255,992 264,992 276,990 289,987 310,991 331,999 354,1012 L 381,999 492,748 772,1049 836,1024 860,1049 C 881,1039 901,1025 922,1006 886,937 835,863 770,784 769,783 710,716 594,584 L 774,223 C 774,196 753,168 711,139 L 727,119 C 717,90 699,76 672,76 641,76 570,178 457,381 L 164,-76 C 142,-110 111,-127 72,-127 30,-127 9,-110 8,-76 1,-67 -2,-52 -2,-32 -2,-23 -1,-13 0,-2 Z"/>
  </g>
  <g id="bullet-char-template-10004" transform="scale(0.00048828125,-0.00048828125)">
   <path d="M 285,-33 C 182,-33 111,30 74,156 52,228 41,333 41,471 41,549 55,616 82,672 116,743 169,778 240,778 293,778 328,747 346,684 L 369,508 C 377,444 397,411 428,410 L 1163,1116 C 1174,1127 1196,1133 1229,1133 1271,1133 1292,1118 1292,1087 L 1292,965 C 1292,929 1282,901 1262,881 L 442,47 C 390,-6 338,-33 285,-33 Z"/>
  </g>
  <g id="bullet-char-template-9679" transform="scale(0.00048828125,-0.00048828125)">
   <path d="M 813,0 C 632,0 489,54 383,161 276,268 223,411 223,592 223,773 276,916 383,1023 489,1130 632,1184 813,1184 992,1184 1136,1130 1245,1023 1353,916 1407,772 1407,592 1407,412 1353,268 1245,161 1136,54 992,0 813,0 Z"/>
  </g>
  <g id="bullet-char-template-8226" transform="scale(0.00048828125,-0.00048828125)">
   <path d="M 346,457 C 273,457 209,483 155,535 101,586 74,649 74,723 74,796 101,859 155,911 209,963 273,989 346,989 419,989 480,963 531,910 582,859 608,796 608,723 608,648 583,586 532,535 482,483 420,457 346,457 Z"/>
  </g>
  <g id="bullet-char-template-8211" transform="scale(0.00048828125,-0.00048828125)">
   <path d="M -4,459 L 1135,459 1135,606 -4,606 -4,459 Z"/>
  </g>
  <g id="bullet-char-template-61548" transform="scale(0.00048828125,-0.00048828125)">
   <path d="M 173,740 C 173,903 231,1043 346,1159 462,1274 601,1332 765,1332 928,1332 1067,1274 1183,1159 1299,1043 1357,903 1357,740 1357,577 1299,437 1183,322 1067,206 928,148 765,148 601,148 462,206 346,322 231,437 173,577 173,740 Z"/>
  </g>
 </defs>
 <g class="Page">
  <g class="com.sun.star.drawing.CustomShape">
   <g id="id3">
    <rect class="BoundingBox" stroke="none" fill="none" x="3971" y="7031" width="5718" height="4765"/>
    <g style="opacity: 0.890196078431373">
     <g>
      <defs>
       <linearGradient id="gradient1" x1="5084" y1="6389" x2="8576" y2="12437" gradientUnits="userSpaceOnUse">
        <stop offset="0" style="stop-color:rgb(255,0,0)"/>
        <stop offset="1" style="stop-color:rgb(42,96,153)"/>
       </linearGradient>
      </defs>
      <path style="fill:url(#gradient1)" d="M 4765,7031 L 4766,7031 4714,7033 4662,7038 4611,7046 4560,7058 4511,7073 4462,7091 4415,7113 4369,7137 4325,7165 4282,7195 4242,7228 4205,7264 4169,7301 4136,7341 4106,7384 4078,7428 4054,7474 4032,7521 4014,7570 3999,7619 3987,7670 3979,7721 3974,7773 3972,7825 3972,11001 3972,11001 3974,11053 3979,11105 3987,11156 3999,11207 4014,11256 4032,11305 4054,11352 4078,11398 4106,11442 4136,11485 4169,11525 4205,11562 4242,11598 4282,11631 4325,11661 4369,11689 4415,11713 4462,11735 4511,11753 4560,11768 4611,11780 4662,11788 4714,11793 4766,11795 8893,11795 8894,11795 8946,11793 8998,11788 9049,11780 9100,11768 9149,11753 9198,11735 9245,11713 9291,11689 9335,11661 9378,11631 9418,11598 9455,11562 9491,11525 9524,11485 9554,11442 9582,11398 9606,11352 9628,11305 9646,11256 9661,11207 9673,11156 9681,11105 9686,11053 9688,11001 9687,7825 9688,7825 9688,7825 9686,7773 9681,7721 9673,7670 9661,7619 9646,7570 9628,7521 9606,7474 9582,7428 9554,7384 9524,7341 9491,7301 9455,7264 9418,7228 9378,7195 9335,7165 9291,7137 9245,7113 9198,7091 9149,7073 9100,7058 9049,7046 8998,7038 8946,7033 8894,7031 4765,7031 Z"/>
     </g>
    </g>
   </g>
  </g>
  <g class="TextShape">
   <g id="id4">
    <rect class="BoundingBox" stroke="none" fill="none" x="4161" y="8107" width="2387" height="4130"/>
    <text class="SVGTextShape"><tspan class="TextParagraph" font-family="Lobster Two" font-size="3104px" font-weight="400"><tspan class="TextPosition" x="4411" y="11335"><tspan fill="rgb(0,0,0)" stroke="none" style="white-space: pre">T</tspan></tspan></tspan></text>
   </g>
  </g>
  <g class="TextShape">
   <g id="id5">
    <rect class="BoundingBox" stroke="none" fill="none" x="5828" y="6608" width="2110" height="4130"/>
    <text class="SVGTextShape"><tspan class="TextParagraph" font-family="Lobster Two" font-size="3104px" font-weight="400"><tspan class="TextPosition" x="6078" y="9836"><tspan fill="rgb(0,0,0)" stroke="none" style="white-space: pre">2</tspan></tspan></tspan></text>
   </g>
  </g>
  <g class="TextShape">
   <g id="id6">
    <rect class="BoundingBox" stroke="none" fill="none" x="7029" y="8109" width="2497" height="4130"/>
    <text class="SVGTextShape"><tspan class="TextParagraph" font-family="Lobster Two" font-size="3104px" font-weight="400"><tspan class="TextPosition" x="7279" y="11337"><tspan fill="rgb(0,0,0)" stroke="none" style="white-space: pre">P</tspan></tspan></tspan></text>
   </g>
  </g>
  <g class="TextShape">
   <g id="id7">
    <rect class="BoundingBox" stroke="none" fill="none" x="9590" y="7050" width="9191" height="4710"/>
    <text class="SVGTextShape"><tspan class="TextParagraph" font-family="Noto Mono, monospace" font-size="1270px" font-weight="400"><tspan class="TextPosition" x="9840" y="8352"><tspan fill="rgb(0,0,0)" stroke="none" style="white-space: pre">Theoretical </tspan></tspan></tspan><tspan class="TextParagraph" font-family="Noto Mono, monospace" font-size="1270px" font-weight="400"><tspan class="TextPosition" x="9840" y="9838"><tspan fill="rgb(0,0,0)" stroke="none" style="white-space: pre">Transport </tspan></tspan></tspan><tspan class="TextParagraph" font-family="Noto Mono, monospace" font-size="1270px" font-weight="400"><tspan class="TextPosition" x="9840" y="11324"><tspan fill="rgb(0,0,0)" stroke="none" style="white-space: pre">Physics</tspan></tspan></tspan></text>
   </g>
  </g>
 </g>
</svg>
